src/assets/fortmatic.svg

<svg fill="none" height="63" viewBox="0 0 63 63" width="63" xmlns="http://www.w3.org/2000/svg"><path clip-rule="evenodd" d="m31.6393.984375h15.3274 15.3275v15.299025h-15.3275-15.3274-15.3275v15.2989.981 14.2289.0891 15.2099h-15.327425v-15.2099-.0891-14.2289-.981-15.2989-15.299025h15.327425zm15.3274 45.808325h-15.2381v-15.2098h30.5566v15.7449c0 3.914-1.5571 7.668-4.3291 10.4365s-6.5319 4.325-10.4533 4.3274h-.5361z" fill="#617bff" fill-rule="evenodd"/></svg>

<svg width="63" height="63" viewBox="0 0 63 63" fill="none" xmlns="http://www.w3.org/2000/svg">
<path fill-rule="evenodd" clip-rule="evenodd" d="M31.6393 0.984375H46.9667H62.2942V16.2834H46.9667H31.6393H16.3118V31.5823V32.5633V46.7922V46.8813V62.0912H0.984375V46.8813V46.7922V32.5633V31.5823V16.2834V0.984375H16.3118H31.6393ZM46.9667 46.7927H31.7286V31.5829H62.2852V47.3278C62.2852 51.2418 60.7281 54.9958 57.9561 57.7643C55.1841 60.5328 51.4242 62.0893 47.5028 62.0917H46.9667V46.7927Z" fill="#617BFF"/>
</svg>
